X:185
T: Red Lion Inn
S: "First Collection of Traditional Irish Music" (M.Mulvihill)
Z: B.Black
L: 1/8
M: C|
R: hornpipe
K: Bb
(3FGA|BFdB fdbf|dBAc BAGF|GEDE CEcd|ecAc BAGF|
BFdB fdbf|dBAc BAGF|GEDE CEcd|ecAc B2 :|
(3GFE|DB,FD BFdB|fbfd BAGF|GB (3ABc Bdfa|\
bgf=e f2 (3fga|
bfdB g=ecA|BGdc BAGF|GEDE CEcd|ecAc B2 :|
w: %blank
K: A %Transposed from Bb
(3EFG|AEcA ecae|cAGB AGFE|FDCD B,DBc|dBGB AGFE|
AEcA ecae|cAGB AGFE|FDCD B,DBc|dBGB A2 :|
(3FED|CA,EC AEcA|eaec AGFE|FA (3GAB Aceg|\
afe^d e2 (3efg|
aecA f^dBG|AFcB AGFE|FDCD B,DBc|dBGB A2 :|

